static/img/olake/blog-image-1.svg

<svg xmlns="http://www.w3.org/2000/svg" width="554" height="298" fill="none" viewBox="0 0 554 298"><g clip-path="url(#a)"><rect width="553" height="298" x=".5" fill="#193ae6" rx="8"/><g filter="url(#b)"><ellipse cx="384" cy="230.5" fill="#4664ff" rx="210.5" ry="176.5"/></g><g clip-path="url(#c)"><path fill="#fff" d="M282.119 66.106a7.5 7.5 0 0 0-9.97 0c-18.531 16.47-31.931 33.998-39.833 52.091-7.561 17.311-9.59 34.454-5.877 49.586 5.077 20.652 20.678 36.288 43.195 43.593v15.406a7.51 7.51 0 0 0 7.513 7.513 7.51 7.51 0 0 0 7.513-7.513v-15.406c11.172-3.624 20.652-9.294 27.975-16.617a57.07 57.07 0 0 0 15.22-26.976c3.713-15.132 1.68-32.279-5.877-49.586-7.924-18.088-21.329-35.62-39.859-52.091m31.139 98.102c-3.5 14.257-13.51 25.08-28.638 31.219v-74.724a7.51 7.51 0 0 0-4.638-6.941 7.5 7.5 0 0 0-5.75 0 7.51 7.51 0 0 0-4.638 6.941l.053 74.724c-15.088-6.126-25.124-16.975-28.602-31.254-6.019-24.502 7.433-54.916 36.128-82.312 28.647 27.427 42.104 57.846 36.085 82.347"/></g></g><defs><clipPath id="a"><rect width="553" height="298" x=".5" fill="#fff" rx="8"/></clipPath><clipPath id="c"><path fill="#fff" d="M164 149 277.137 35.863 390.274 149 277.137 262.137z"/></clipPath><filter id="b" width="781" height="713" x="-6.5" y="-126" color-interpolation-filters="sRGB" filterUnits="userSpaceOnUse"><feFlood flood-opacity="0" result="BackgroundImageFix"/><feBlend in="SourceGraphic" in2="BackgroundImageFix" result="shape"/><feGaussianBlur result="effect1_foregroundBlur_1_1350" stdDeviation="90"/></filter></defs></svg>

<svg width="554" height="298" viewBox="0 0 554 298" fill="none" xmlns="http://www.w3.org/2000/svg">
<g clip-path="url(#clip0_1_1350)">
<rect x="0.5" width="553" height="298" rx="8" fill="#193AE6"/>
<g filter="url(#filter0_f_1_1350)">
<ellipse cx="384" cy="230.5" rx="210.5" ry="176.5" fill="#4664FF"/>
</g>
<g clip-path="url(#clip1_1_1350)">
<path d="M282.119 66.1057C280.746 64.884 278.972 64.2091 277.134 64.2091C275.296 64.2091 273.522 64.884 272.149 66.1057C253.618 82.5768 240.218 100.104 232.316 118.197C224.755 135.508 222.726 152.651 226.439 167.783C231.516 188.435 247.117 204.071 269.634 211.376L269.634 226.782C269.634 227.769 269.828 228.746 270.206 229.658C270.583 230.569 271.137 231.397 271.834 232.095C272.532 232.793 273.36 233.346 274.272 233.724C275.183 234.101 276.16 234.295 277.147 234.295C279.14 234.295 281.051 233.504 282.459 232.095C283.157 231.397 283.711 230.569 284.088 229.658C284.466 228.746 284.66 227.769 284.66 226.782L284.66 211.376C295.832 207.752 305.312 202.082 312.635 194.759C320.098 187.342 325.366 178.006 327.855 167.783C331.568 152.651 329.535 135.504 321.978 118.197C314.054 100.109 300.649 82.5768 282.119 66.1057ZM313.258 164.208C309.758 178.465 299.748 189.288 284.62 195.427L284.62 120.703C284.62 119.717 284.426 118.74 284.048 117.828C283.671 116.917 283.117 116.088 282.42 115.391C281.722 114.693 280.894 114.14 279.982 113.762C279.071 113.384 278.094 113.19 277.107 113.19C276.121 113.19 275.144 113.384 274.232 113.762C273.321 114.14 272.492 114.693 271.795 115.391C271.097 116.088 270.544 116.917 270.166 117.828C269.789 118.74 269.594 119.717 269.594 120.703L269.647 195.427C254.559 189.301 244.523 178.452 241.045 164.173C235.026 139.671 248.478 109.257 277.173 81.8609C305.82 109.288 319.277 139.707 313.258 164.208Z" fill="white"/>
</g>
</g>
<defs>
<filter id="filter0_f_1_1350" x="-6.5" y="-126" width="781" height="713" filterUnits="userSpaceOnUse" color-interpolation-filters="sRGB">
<feFlood flood-opacity="0" result="BackgroundImageFix"/>
<feBlend mode="normal" in="SourceGraphic" in2="BackgroundImageFix" result="shape"/>
<feGaussianBlur stdDeviation="90" result="effect1_foregroundBlur_1_1350"/>
</filter>
<clipPath id="clip0_1_1350">
<rect x="0.5" width="553" height="298" rx="8" fill="white"/>
</clipPath>
<clipPath id="clip1_1_1350">
<rect width="160" height="160" fill="white" transform="translate(164 149) rotate(-45)"/>
</clipPath>
</defs>
</svg>
